public/assets/images/brand/12.svg

<svg width="90" height="21" viewBox="0 0 90 21" fill="none" xmlns="http://www.w3.org/2000/svg">
<g clip-path="url(#clip0_903_22353)">
<path fill-rule="evenodd" clip-rule="evenodd" d="M21.1365 19.6952H16.1459L14.6192 16.0904H6.30147L4.91168 19.6952H0L7.50176 1.47495H12.8767L21.1365 19.6952ZM10.255 5.8276L7.52808 12.9084H13.2557L10.255 5.8276ZM39.2671 1.47495H43.3049V19.6952H38.6669V8.31336L33.65 14.0327H32.9393L27.9223 8.31336V19.6952H23.2844V1.47495H27.3222L33.2973 8.236L39.2671 1.47495ZM55.055 1.47495C61.8461 1.47495 65.3363 5.61616 65.3363 10.6135C65.3363 15.848 61.9513 19.6952 54.5338 19.6952H46.8425V1.47495H55.055ZM51.4805 16.3534H54.5075C59.1717 16.3534 60.5615 13.2539 60.5615 10.5825C60.5615 7.45727 58.8453 4.81164 54.4496 4.81164H51.4752L51.4805 16.3534ZM84.0723 5.72962H74.5438L68.7529 0.0257859L90 0V20.8453L84.0723 15.0125V5.72962ZM74.5385 15.193L74.5648 6.77137L68.5318 12.6815V21H77.2602L83.1879 15.193H74.5385Z" fill="#EAF0FF"/>
</g>
<defs>
<clipPath id="clip0_903_22353">
<rect width="90" height="21" fill="white"/>
</clipPath>
</defs>
</svg>

<svg xmlns="http://www.w3.org/2000/svg" width="90" height="21" fill="none" viewBox="0 0 90 21"><g clip-path="url(#a)"><path fill="#eaf0ff" fill-rule="evenodd" d="M21.137 19.695h-4.991l-1.527-3.605H6.301l-1.39 3.605H0l7.502-18.22h5.375zM10.255 5.828l-2.727 7.08h5.728zm29.012-4.353h4.038v18.22h-4.638V8.313l-5.017 5.72h-.71l-5.018-5.72v11.382h-4.638V1.475h4.038l5.975 6.761zm15.788 0c6.791 0 10.281 4.141 10.281 9.139 0 5.234-3.385 9.081-10.802 9.081h-7.691V1.475zM51.48 16.353h3.028c4.664 0 6.054-3.1 6.054-5.77 0-3.126-1.717-5.771-6.112-5.771h-2.975zM84.072 5.73h-9.528L68.753.026 90 0v20.845l-5.928-5.832zm-9.534 9.463.027-8.422-6.033 5.91V21h8.728l5.928-5.807z" clip-rule="evenodd"/></g><defs><clipPath id="a"><path fill="#fff" d="M0 0h90v21H0z"/></clipPath></defs></svg>
